X: 151
T: The pretty brown girl
C: anon.
O: Ireland
B: Francis O'Neill: "The Dance Music of Ireland" (1907) no. 151
R: Double jig
Z: Transcribed by Frank Nordberg - http://www.musicaviva.com
F: http://www.musicaviva.com/abc/tunes/ireland/oneill-1001/oneill-1001-015
1.abc
M: 6/8
L: 1/8
K: G
A|B2d cAA|BGG (cA)G|B2d cAA|BGG G2A|B2d cAA|Bd(e d)BG|B2d cBA|BGG G2:|
|:f|gee fdd|ece dBG|gfe fd(f|e)ce d2 (e/f/)|gfe fdf|(e/f/g)(e d)BG|B2d cB
A|BGG G2:|
W:
W:
W: From Musica Viva - http://www.musicaviva.com
W: the Internet center for free sheet music downloads.


